lib/logotmp/nrk-logo-nrk-nordland-title-below.svg

<svg width="72" height="41" viewBox="0 0 72 41" fill="none" xmlns="http://www.w3.org/2000/svg">
<path d="M0 17.9976V5.99865H4V17.9976H0ZM9.24381 7.90834L11.5081 17.9976H7.19917L4.49549 5.99865H6.91217C7.46635 5.99146 8.00406 6.18681 8.4245 6.54795C8.84562 6.89394 9.08495 7.37426 9.24381 7.90834ZM12 17.9976V5.99865H16V17.9976H12ZM19.0105 10.5617C18.5862 10.5658 18.1687 10.4548 17.8025 10.2405C17.4412 10.0317 17.1411 9.73152 16.9323 9.37016C16.7178 9.00389 16.6068 8.58632 16.611 8.16188C16.6061 7.74002 16.7172 7.32494 16.9323 6.96199C17.1433 6.60455 17.4431 6.30765 17.8025 6.10008C18.1689 5.88606 18.5862 5.77507 19.0105 5.77894C19.4322 5.7744 19.8471 5.88549 20.2102 6.10008C20.566 6.30947 20.8626 6.60612 21.072 6.96199C21.2868 7.32504 21.3979 7.74005 21.3933 8.16188C21.3973 8.58629 21.2863 9.00379 21.072 9.37016C20.8649 9.72993 20.5679 10.0298 20.2102 10.2405C19.8471 10.4555 19.4324 10.5666 19.0105 10.5617ZM22 17.9976V5.99865H26V17.9976H22ZM30.9737 12.5558C30.9848 12.5674 31.0693 12.7054 31.2272 12.9698C31.3851 13.2342 31.5906 13.5722 31.8439 13.9838C32.0974 14.3953 32.3649 14.8318 32.6463 15.2936C32.9278 15.7553 33.1926 16.1919 33.4408 16.6033C33.6881 17.0147 33.9697 17.4795 34.2857 17.9976H29.9598C29.6893 17.5582 29.4441 17.161 29.2245 16.8061C29.0048 16.4512 28.7713 16.0681 28.5238 15.6569C28.2758 15.2461 28.0306 14.8461 27.7882 14.457C27.5458 14.0679 27.3375 13.7272 27.1633 13.4346C26.9883 13.1419 26.8671 12.9447 26.7997 12.8431C26.6325 12.591 26.5336 12.2999 26.5127 11.9981C26.5294 11.7085 26.6226 11.4285 26.7828 11.1867C26.8503 11.074 26.9743 10.874 27.1545 10.5867C27.3348 10.2994 27.546 9.95861 27.7882 9.56428C28.0304 9.16995 28.2756 8.76716 28.5238 8.35593C28.772 7.9447 29.0055 7.55879 29.2245 7.19826C29.4445 6.83811 29.6897 6.43814 29.9598 5.99837H34.2857L30.9396 11.4571C30.8361 11.6191 30.7777 11.8059 30.7706 11.9981C30.7818 12.1999 30.8528 12.3939 30.9737 12.5558Z" fill="white"/>
<g clip-path="url(#clip0_5918_1688)">
<path d="M8.54578 32.1278L1.368 23.005H0V34.9961H1.58756V25.8677L8.78222 34.9961H10.1502V23.005H8.54578V32.1278ZM20.4693 28.2659C20.8184 28.9246 20.9929 29.6986 20.9929 30.5881C20.9929 31.5226 20.8043 32.3333 20.4271 33.0201C20.0499 33.7069 19.5236 34.2361 18.848 34.6077C18.1724 34.9792 17.3956 35.165 16.5173 35.165C15.6391 35.165 14.9298 34.9905 14.288 34.6414C13.6462 34.2924 13.1536 33.7829 12.8102 33.113C12.4668 32.4431 12.2951 31.6465 12.2951 30.7232C12.2951 29.8 12.4781 29.0006 12.844 28.325C13.2099 27.6494 13.7222 27.1259 14.3809 26.7543C15.0396 26.3828 15.808 26.197 16.6862 26.197C17.5644 26.197 18.3273 26.3771 18.9747 26.7374C19.6221 27.0977 20.1203 27.6072 20.4693 28.2659ZM19.2027 30.6219C19.2027 30.1603 19.152 29.7408 19.0507 29.3637C18.9493 28.9865 18.7945 28.6628 18.5862 28.3926C18.3779 28.1223 18.119 27.9168 17.8093 27.7761C17.4997 27.6354 17.131 27.565 16.7031 27.565C16.1627 27.565 15.6982 27.6776 15.3098 27.9028C14.9213 28.128 14.6201 28.4657 14.4062 28.9161C14.1923 29.3665 14.0853 29.9351 14.0853 30.6219C14.0853 31.3087 14.1923 31.9054 14.4062 32.3783C14.6201 32.8512 14.9129 33.2059 15.2844 33.4423C15.656 33.6788 16.0951 33.797 16.6018 33.797C17.1084 33.797 17.5588 33.6816 17.9529 33.4508C18.347 33.22 18.6538 32.8681 18.8733 32.3952C19.0929 31.9223 19.2027 31.3312 19.2027 30.6219ZM26.6169 26.3237C26.3016 26.4081 26.0033 26.5376 25.7218 26.7121C25.4403 26.8866 25.1757 27.0977 24.928 27.3454C24.8886 27.3848 24.8492 27.4299 24.8098 27.4721V26.2139L23.0871 26.4672V34.9961H24.8098V28.6149C24.9393 28.5248 25.0716 28.4404 25.2067 28.3672C25.3812 28.2715 25.5557 28.1899 25.7302 28.1223C25.9047 28.0548 26.0821 27.9957 26.2622 27.945C26.4424 27.8943 26.631 27.8577 26.828 27.8352C27.025 27.8127 27.2305 27.8071 27.4444 27.8183L27.6471 26.2308C27.2756 26.2083 26.9321 26.2392 26.6169 26.3237ZM34.7911 22.4983L36.5138 22.2619V34.9961H35.112L34.9009 34.2164C34.7742 34.3093 34.6476 34.3966 34.5209 34.4726C34.1381 34.709 33.7468 34.8835 33.3471 34.9961C32.9474 35.1087 32.5224 35.165 32.072 35.165C31.2951 35.165 30.628 34.9933 30.0707 34.6499C29.5133 34.3065 29.0855 33.8195 28.7871 33.189C28.4887 32.5585 28.3396 31.8097 28.3396 30.9428C28.3396 29.9294 28.5366 29.0709 28.9307 28.3672C29.3247 27.6635 29.8455 27.1259 30.4929 26.7543C31.1403 26.3828 31.8412 26.197 32.5956 26.197C33.0234 26.197 33.4147 26.2336 33.7693 26.3068C34.124 26.38 34.4477 26.4728 34.7404 26.5854C34.7573 26.5911 34.7742 26.5995 34.7911 26.608V22.4983ZM34.7911 33.1074V27.9028C34.7038 27.8718 34.611 27.8352 34.5293 27.8099C34.2647 27.7254 34.003 27.6635 33.744 27.6241C33.485 27.5847 33.2148 27.565 32.9333 27.565C32.3479 27.565 31.844 27.686 31.4218 27.9281C30.9996 28.1702 30.6759 28.5248 30.4507 28.9921C30.2255 29.4594 30.1129 30.042 30.1129 30.7401C30.1129 31.4382 30.2142 31.9983 30.4169 32.4543C30.6196 32.9103 30.9123 33.2481 31.2951 33.4677C31.6779 33.6872 32.1396 33.797 32.68 33.797C33.0403 33.797 33.4428 33.7154 33.8876 33.5521C34.1719 33.448 34.473 33.296 34.7911 33.1074ZM41.8084 33.7548C41.7578 33.7604 41.6987 33.7632 41.6311 33.7632C41.4847 33.7632 41.3609 33.7407 41.2596 33.6957C41.1582 33.6506 41.0738 33.5803 41.0062 33.4846C40.9387 33.3888 40.8908 33.2678 40.8627 33.1214C40.8345 32.9751 40.8204 32.8006 40.8204 32.5979V22.245L39.0978 22.4983V33.3579C39.0978 33.6844 39.1428 33.9631 39.2329 34.1939C39.323 34.4247 39.4524 34.6133 39.6213 34.7597C39.7902 34.906 39.9901 35.0102 40.2209 35.0721C40.4517 35.134 40.7022 35.165 40.9724 35.165C41.1076 35.165 41.237 35.1594 41.3609 35.1481C41.4847 35.1368 41.6058 35.12 41.724 35.0974C41.8422 35.0749 41.9407 35.0524 42.0196 35.0299L42.1884 33.6957C42.1209 33.7069 42.0533 33.7182 41.9858 33.7294C41.9182 33.7407 41.8591 33.7491 41.8084 33.7548ZM51.4604 33.9152C51.5505 33.904 51.6462 33.8814 51.7476 33.8477L51.5618 34.9792C51.5055 35.0017 51.4407 35.0214 51.3676 35.0383C51.2944 35.0552 51.2127 35.0749 51.1227 35.0974C51.0326 35.12 50.9397 35.134 50.844 35.1397C50.7483 35.1453 50.6498 35.1481 50.5484 35.1481C50.1881 35.1481 49.8673 35.089 49.5858 34.9708C49.3043 34.8526 49.0847 34.6611 48.9271 34.3966C48.8427 34.2558 48.7836 34.0897 48.7441 33.8983C48.6372 34.0222 48.5274 34.1432 48.412 34.253C48.1024 34.5457 47.7477 34.7709 47.348 34.9286C46.9483 35.0862 46.4726 35.165 45.9209 35.165C45.3241 35.165 44.8259 35.0524 44.4262 34.8272C44.0265 34.602 43.7281 34.3065 43.5311 33.9405C43.3341 33.5746 43.2356 33.1777 43.2356 32.7499C43.2356 32.2995 43.3622 31.8857 43.6156 31.5086C43.8689 31.1314 44.2545 30.8189 44.7724 30.5712C45.2904 30.3235 45.9434 30.1771 46.7316 30.1321L48.7047 29.9998V29.5748C48.7047 29.2483 48.6738 28.964 48.6062 28.7219C48.5387 28.4798 48.4261 28.28 48.2684 28.1223C48.1108 27.9647 47.8941 27.8465 47.6182 27.7677C47.3424 27.6888 47.0018 27.6494 46.5964 27.6494C46.3713 27.6494 46.1433 27.6579 45.9124 27.6748C45.6816 27.6917 45.448 27.7226 45.2116 27.7677C44.9751 27.8127 44.7302 27.869 44.4769 27.9366C44.2236 28.0041 43.9561 28.0886 43.6747 28.1899L43.8773 26.7543C44.1588 26.6417 44.4544 26.5432 44.764 26.4588C45.0736 26.3743 45.403 26.3096 45.752 26.2646C46.101 26.2195 46.4557 26.197 46.816 26.197C47.3114 26.197 47.7561 26.242 48.1502 26.3321C48.5443 26.4222 48.8849 26.5517 49.172 26.7206C49.4591 26.8894 49.6927 27.0977 49.8729 27.3454C50.053 27.5931 50.1881 27.8803 50.2782 28.2068C50.3683 28.5333 50.4133 28.8936 50.4133 29.2877L50.3796 32.7668C50.3683 33.1834 50.4302 33.4817 50.5653 33.6619C50.7004 33.842 50.92 33.9321 51.224 33.9321C51.2916 33.9321 51.3704 33.9265 51.4604 33.9152ZM48.6935 32.9075L48.7019 31.2299H47.2241C46.6724 31.2299 46.2333 31.2749 45.9068 31.365C45.5803 31.4551 45.3439 31.5958 45.1975 31.7872C45.0511 31.9786 44.9779 32.2432 44.9779 32.581C44.9779 32.84 45.0342 33.0623 45.1468 33.2481C45.2594 33.4339 45.4255 33.5774 45.645 33.6788C45.8646 33.7801 46.132 33.8308 46.4473 33.8308C46.695 33.8308 46.9342 33.8083 47.165 33.7632C47.3959 33.7182 47.6154 33.645 47.8237 33.5437C48.032 33.4423 48.229 33.3185 48.4148 33.1721C48.5133 33.0933 48.6062 33.0032 48.6963 32.9075H48.6935ZM59.9724 26.5517C59.5446 26.3152 59.0041 26.197 58.3511 26.197C57.867 26.197 57.3856 26.273 56.9071 26.425C56.4286 26.577 55.9754 26.7937 55.5476 27.0752C55.3843 27.1822 55.2267 27.3004 55.0747 27.4214V26.2139L53.352 26.4672V34.9961H55.0747V28.5811C55.2407 28.4854 55.4096 28.3954 55.5898 28.3166C55.8319 28.2096 56.0739 28.1167 56.316 28.0379C56.5581 27.9591 56.8001 27.9 57.0422 27.8606C57.2843 27.8211 57.5179 27.8014 57.7431 27.8014C58.0584 27.8014 58.3286 27.8437 58.5538 27.9281C58.779 28.0126 58.9647 28.1392 59.1111 28.3081C59.2575 28.477 59.3644 28.6909 59.432 28.9499C59.4996 29.2088 59.5333 29.5128 59.5333 29.8619V34.9961H61.256V29.5072C61.256 28.7416 61.149 28.1167 60.9351 27.6326C60.7212 27.1484 60.4003 26.7881 59.9724 26.5517ZM71.44 22.2619V34.9961H70.0382L69.8271 34.2164C69.7004 34.3093 69.5738 34.3966 69.4471 34.4726C69.0643 34.709 68.673 34.8835 68.2733 34.9961C67.8736 35.1087 67.4486 35.165 66.9982 35.165C66.2213 35.165 65.5542 34.9933 64.9969 34.6499C64.4396 34.3065 64.0117 33.8195 63.7133 33.189C63.415 32.5585 63.2658 31.8097 63.2658 30.9428C63.2658 29.9294 63.4628 29.0709 63.8569 28.3672C64.251 27.6635 64.7717 27.1259 65.4191 26.7543C66.0665 26.3828 66.7674 26.197 67.5218 26.197C67.9496 26.197 68.3409 26.2336 68.6956 26.3068C69.0502 26.38 69.3739 26.4728 69.6667 26.5854C69.6836 26.5911 69.7004 26.5995 69.7173 26.608V22.4983L71.44 22.2619ZM69.7173 33.1074V27.9028C69.6301 27.8718 69.5372 27.8352 69.4556 27.8099C69.191 27.7254 68.9292 27.6635 68.6702 27.6241C68.4113 27.5847 68.141 27.565 67.8596 27.565C67.2741 27.565 66.7702 27.686 66.348 27.9281C65.9258 28.1702 65.6021 28.5248 65.3769 28.9921C65.1517 29.4594 65.0391 30.042 65.0391 30.7401C65.0391 31.4382 65.1404 31.9983 65.3431 32.4543C65.5458 32.9103 65.8385 33.2481 66.2213 33.4677C66.6041 33.6872 67.0658 33.797 67.6062 33.797C67.9665 33.797 68.369 33.7154 68.8138 33.5521C69.0981 33.448 69.3993 33.296 69.7173 33.1074Z" fill="white"/>
</g>
<defs>
<clipPath id="clip0_5918_1688">
<rect width="72" height="14" fill="white" transform="translate(0 22)"/>
</clipPath>
</defs>
</svg>

<svg xmlns="http://www.w3.org/2000/svg" viewBox="0 0 72 41"><path fill="#fff" d="M0 17.998v-12h4v12H0Zm9.244-10.09 2.264 10.09H7.2l-2.704-12h2.417a2.276 2.276 0 0 1 1.513.55c.42.346.66.826.819 1.36ZM12 17.998v-12h4v12h-4Zm7.01-7.436a2.381 2.381 0 0 1-2.078-1.192 2.345 2.345 0 0 1-.321-1.208 2.301 2.301 0 0 1 .321-1.2A2.41 2.41 0 0 1 20.21 6.1c.356.21.653.506.862.862.215.363.326.778.321 1.2a2.35 2.35 0 0 1-.321 1.208 2.4 2.4 0 0 1-.862.87 2.301 2.301 0 0 1-1.2.322ZM22 17.998v-12h4v12h-4Zm8.974-5.442c.01.011.095.15.253.414s.364.602.617 1.014a316.22 316.22 0 0 1 1.597 2.62c.247.41.529.876.845 1.394H29.96c-.27-.44-.516-.837-.736-1.192-.22-.355-.453-.738-.7-1.15-.248-.41-.493-.81-.736-1.199-.242-.39-.45-.73-.625-1.022a18.04 18.04 0 0 0-.363-.592 1.747 1.747 0 0 1-.287-.845c.016-.29.11-.57.27-.811.067-.113.191-.313.371-.6a182.106 182.106 0 0 0 1.37-2.23l.7-1.159.736-1.2h4.326l-3.346 5.46a1.079 1.079 0 0 0-.17.54c.012.202.083.396.204.558Z"/><g clip-path="url(#a)"><path fill="#fff" d="m8.546 32.128-7.178-9.123H0v11.991h1.588v-9.128l7.194 9.128h1.368V23.005H8.546v9.123Zm11.923-3.862c.35.659.524 1.433.524 2.322 0 .935-.189 1.745-.566 2.432a3.934 3.934 0 0 1-1.579 1.588c-.676.371-1.452.557-2.33.557-.879 0-1.588-.175-2.23-.524a3.525 3.525 0 0 1-1.478-1.528c-.343-.67-.515-1.466-.515-2.39 0-.923.183-1.722.549-2.398.366-.676.878-1.2 1.537-1.57.659-.372 1.427-.558 2.305-.558.878 0 1.641.18 2.289.54a3.69 3.69 0 0 1 1.494 1.529Zm-1.266 2.356c0-.462-.051-.881-.152-1.258a2.732 2.732 0 0 0-.465-.971 2.023 2.023 0 0 0-.777-.617c-.31-.14-.678-.211-1.106-.211-.54 0-1.005.113-1.393.338-.389.225-.69.563-.904 1.013-.214.45-.32 1.02-.32 1.706 0 .687.106 1.283.32 1.756.214.473.507.828.878 1.064.372.237.811.355 1.318.355.506 0 .957-.115 1.35-.346.395-.231.702-.583.921-1.056.22-.473.33-1.064.33-1.773Zm7.414-4.298a3.32 3.32 0 0 0-.895.388 4.404 4.404 0 0 0-.794.633c-.04.04-.079.085-.118.127v-1.258l-1.723.253v8.53h1.723v-6.382a4.22 4.22 0 0 1 .92-.493c.175-.067.352-.126.532-.177a3.59 3.59 0 0 1 1.182-.127l.203-1.587a3.212 3.212 0 0 0-1.03.093Zm8.174-3.826 1.723-.236v12.734h-1.402l-.211-.78c-.127.093-.253.18-.38.257-.383.236-.774.41-1.174.523-.4.113-.825.169-1.275.169-.777 0-1.444-.172-2.001-.515a3.353 3.353 0 0 1-1.284-1.461c-.298-.63-.447-1.38-.447-2.246 0-1.014.197-1.872.59-2.576.395-.704.916-1.241 1.563-1.613a4.153 4.153 0 0 1 2.103-.557 5.817 5.817 0 0 1 2.144.388.402.402 0 0 1 .051.023v-4.11Zm0 10.61v-5.205c-.087-.031-.18-.068-.262-.093a5.103 5.103 0 0 0-1.596-.245c-.585 0-1.089.121-1.511.363a2.382 2.382 0 0 0-.971 1.064c-.226.467-.338 1.05-.338 1.748s.101 1.258.304 1.714c.203.456.495.794.878 1.014.383.22.845.329 1.385.329.36 0 .763-.082 1.208-.245.284-.104.585-.256.903-.445Zm7.017.647c-.05.005-.11.008-.177.008a.913.913 0 0 1-.371-.067.61.61 0 0 1-.254-.211.927.927 0 0 1-.143-.364 2.806 2.806 0 0 1-.043-.523V22.245l-1.722.253v10.86c0 .326.045.605.135.836.09.23.22.42.388.566.17.146.37.25.6.312.23.062.481.093.751.093a3.746 3.746 0 0 0 1.047-.135l.17-1.334c-.068.01-.136.022-.203.033-.068.012-.127.02-.178.026Zm9.652.16c.09-.011.186-.034.288-.067l-.186 1.131a1.338 1.338 0 0 1-.194.06 14.04 14.04 0 0 0-.245.058c-.09.023-.183.037-.279.043a5.061 5.061 0 0 1-.296.008c-.36 0-.68-.059-.962-.177a1.364 1.364 0 0 1-.659-.574 1.584 1.584 0 0 1-.183-.499 4.97 4.97 0 0 1-.332.355c-.31.293-.664.518-1.064.676-.4.157-.875.236-1.427.236-.597 0-1.095-.113-1.495-.338-.4-.225-.698-.52-.895-.886a2.472 2.472 0 0 1-.295-1.191c0-.45.126-.864.38-1.241.253-.378.639-.69 1.156-.938.518-.248 1.171-.394 1.96-.439L48.705 30v-.425c0-.327-.031-.611-.099-.853a1.337 1.337 0 0 0-.338-.6c-.157-.157-.374-.276-.65-.354a3.77 3.77 0 0 0-1.022-.119 9.37 9.37 0 0 0-.684.026c-.23.017-.464.048-.7.093a10.372 10.372 0 0 0-1.537.422l.202-1.436c.282-.112.577-.21.887-.295.31-.085.639-.15.988-.194a8.294 8.294 0 0 1 1.064-.068c.495 0 .94.045 1.334.135.394.09.735.22 1.022.389.287.168.52.377.7.624.181.248.316.535.406.862.09.326.135.687.135 1.08l-.033 3.48c-.012.416.05.715.185.895.135.18.355.27.659.27.068 0 .146-.006.236-.017Zm-2.767-1.008.009-1.677h-1.478c-.552 0-.99.045-1.317.135-.327.09-.563.23-.71.422-.146.192-.22.456-.22.794 0 .259.057.481.17.667.112.186.279.33.498.43.22.102.487.153.802.153.248 0 .487-.023.718-.068.23-.045.45-.118.659-.22a2.757 2.757 0 0 0 .873-.636h-.004Zm11.28-6.355c-.428-.237-.969-.355-1.622-.355-.484 0-.965.076-1.444.228a5.484 5.484 0 0 0-1.36.65c-.163.107-.32.225-.472.346v-1.207l-1.723.253v8.53h1.723V28.58c.166-.096.335-.186.515-.264.242-.107.484-.2.726-.28.242-.078.484-.137.726-.176.242-.04.476-.06.701-.06.315 0 .586.043.81.127.226.085.412.211.558.38.147.169.253.383.321.642s.101.563.101.912v5.134h1.723v-5.489c0-.765-.107-1.39-.32-1.874-.215-.485-.536-.845-.964-1.081Zm11.467-4.29v12.734h-1.402l-.21-.78c-.128.093-.254.18-.38.257-.384.236-.775.41-1.175.523-.4.113-.824.169-1.275.169-.777 0-1.444-.172-2.001-.515a3.354 3.354 0 0 1-1.284-1.461c-.298-.63-.447-1.38-.447-2.246 0-1.014.197-1.872.59-2.576.395-.704.916-1.241 1.563-1.613a4.153 4.153 0 0 1 2.103-.557 5.818 5.818 0 0 1 2.195.411v-4.11l1.723-.236Zm-1.723 10.845v-5.204c-.087-.031-.18-.068-.261-.093a5.104 5.104 0 0 0-1.596-.245c-.586 0-1.09.121-1.512.363a2.382 2.382 0 0 0-.971 1.064c-.225.467-.338 1.05-.338 1.748s.101 1.258.304 1.714c.203.456.495.794.878 1.014.383.22.845.329 1.385.329.36 0 .763-.082 1.208-.245.284-.104.585-.256.903-.445Z"/></g><defs><clipPath id="a"><path fill="#fff" d="M0 22h72v14H0z"/></clipPath></defs></svg>
